X:1
T:by Scott Joplin
T:The Entertainer 
T:(edit) 
%%score { ( 1 3 ) | ( 2 4 ) }
L:1/8
Q:1/4=110
M:4/4
K:C
V:1 treble nm="Piano"
V:3 treble 
V:2 treble 
V:4 treble 
V:1
 d'e'c'a- ab g2 | decA- AB G2 | DECA,- A,B,A,_A, | G,2 z2 [Bg]2 D^D |: %4
"^RH 8va on repeat\n" E c2 E c2 Ec- | c4- c[ce][df][^d^f] | [eg][ce][df][eg]- [eg][Bd] [df]2 | %7
 [ce]6 D^D | E c2 E c2 Ec- | c6 [Ac][Gc] | [^Fc]Ac[eg]- [eg]dcA | [df]6 D^D | E c2 E c2 Ec | %13
 c4- c[ce][df][^d^f] | [eg][ce][df][eg]- [eg][Bd] [df]2 | [ce]6 cd | [eg]cd[eg]- [eg]cdc | %17
 [eg]cd[eg]- [eg]cdc | [eg]cd[eg]- [eg]B d2 | [ce]4- [ce][Ec][Fd][^F^d] | %20
 [Ge]2 [Af][Ge]- [Ge][Ec][Fd][^F^d] | [Ge]2 [Af][Ge]- [Ge]ecG | ABcd edcd | G2 EF AGEF | %24
 [Ge]2 [Af][Ge]- [Ge][Ec][Fd][^F^d] | G2 AG- GGA^A | [Bd] [Bd]2 [Bd]- [Bd]A^FD | %27
 G2 F2 E[Ec][Fd][^F^d] | [Ge]2 AG- G[Ec][Fd][^F^d] | [Ge]2 AG- GecG | ABcd edcd | c4- cG^FG | %32
 c2 Ac- cAcA | Gceg- gecG |1 [^FA]2 [Fc]2 [=Fe] [Fd]2 [Ec]- | [Ec]4 z2"^8va>" D^D :|2 %36
 A2 c2 e d2 [Ec]- | [Ec]8 ||[K:F] a2 [fa]2- [fa]2 [ac']2 | [bd']4 z4 | f2 [df]2- [df]2 [fa]2 | %41
 [dg]4- [dg]3 g | z g z2 g z z2 | c4 f4 | e^g=be'- e'd'bc' | a4 =b4 | a2 a2- a2 [ac']2 | %47
 [bd']4 z4 | f2 [df]2- [df]2 [fa]2 | [dg]4- [dg]3 g | z g z2 g z z2 | c6 [GB]f | ac'g-g cd e2 || %53
[K:C] f2 c2 [CF]2 z2 | c2 Ac- cAcA | Gceg- gecG | [^FA]2 [Fc]2 [=Fe] [Fd]2 [Ec]- | [Ec]8 | %58
 [DF]2 [^CE][DF]- [DF][CE] [DF]2 | z AFA cdcA | [EG]2 [^D^F][EG]- [EG][DF] [EG]2 | z cec dedc | %62
 [Bd]2 [^A^c][Bd]- [Bd][Ac] [Bd]2 | z faf gagf | [cc'][cc'] [cc']4 [ca]2 | %65
 [cg]2 [EG][EG] [EG]2 [EG]2 | [DF]2 [^CE][DF]- [DF][CE] [DF]2 | z AFA cdcA | %68
 [EG]2 [^D^F][EG]- [EG][DF] [EG]2 | z cec dedc | A^GA[Ag]- [Ag] [Af]2 [Ac] | [Ge]^dea- ac'ge | %72
 [^Fc]2 [Fc]2 [Be] [Bd]2 [EGc]- | [EGc]4 [Ece]4 |] %74
V:2
 decA- AB G2 |[K:bass] DECA,- A,B, G,2 | D,E,C,A,,- A,,B,,A,,_A,, | G,,2 z z [G,,,G,,]2 [G,B,]2 |: %4
 C,2 [E,G,]2 G,,2 [_B,C]2 | F,2 [A,C]2 E,2 [G,C]2 | G,2 [CE]2 G,2 [B,D]2 | C2 G,2 C,2 z2 | %8
 C,2 [E,G,]2 E,2 [_B,C]2 | F,2 [A,C]2 E,2 _E,2 | D,2 [^F,A,]2 D,2 [F,A,]2 | %11
 [G,B,]2 G,,2 A,,2 B,,2 | C,2 [E,G,]2 E,2 [_B,C]2 | F,2 [A,C]2 E,2 [G,C]2 | G,2 [CE]2 G,2 [B,D]2 | %15
 C2 G,2 C,2 z2 | C2 [EG]2 _B,2 [EG]2 | A,2 [CF]2 _A,2 [CF]2 | G,2 [CE]2 G,,2 [G,B,]2 | %19
 C2 G,2 C,2 z2 | C,2 [G,C]2 G,,2 [G,C]2 | C,2 [G,C]2 G,,2 [G,C]2 | F,2 [A,C]2 F,2 [_A,C]2 | %23
 E,2 [G,C]2 D,2 [G,C]2 | C,2 [G,C]2 G,,2 [G,C]2 | C,2 [G,C]2 E,2 _E,2 | D,2 [G,B,]2 D,2 [A,C]2 | %27
 [G,B,]2 [F,A,]2 [E,G,]2 [D,F,]2 | C,2 [G,C]2 G,,2 [G,B,]2 | C,2 [G,C]2 G,,2 [G,C]2 | %30
 F,2 [A,C]2 F,2 [_A,C]2 | E,2 [G,C]2 E,2 [G,C]2 | [F,A,C]2 [F,A,C]2 [^F,A,C]2 [F,A,C]2 | %33
 [G,CE]2 [G,CE]2 [CE_G]2 [CEG]2 |1 D,2 [^F,C]2 [G,B,]4 | C2 G,2 C,2 z2 :|2 D,2 [^F,C]2 [G,B,]4 | %37
 C2 G,2 C,2 z2 ||[K:F] F,,2 [A,C]2 C,2 [A,C]2 | B,,2 [B,D]2 F,2 [B,D]2 | D,,2 [A,D]2 A,,2 [A,D]2 | %41
 G,,2 [B,D]2 D,2 [B,D]2 | B,,2 [B,D]2 [G,,G,]2 [^G,,^G,]2 | A,,2 [A,C]2 D,2 [A,C]2 | %44
 E,2 [=B,D]2 ^G,2 [B,D]2 | [A,C]4 C4 | F,,2 [A,C]2 C,2 [A,C]2 | B,,2 [B,D]2 F,2 [B,D]2 | %48
 D,,2 [A,D]2 A,,2 [A,D]2 | G,,2 [B,D]2 D,2 [B,D]2 | B,,2 [B,D]2 [E,G,]2 [^E,^G,]2 | %51
 [F,A,][D,F,][C,E,][B,,D,] [B,,_D,]4 | C,2 [A,C]2 C,2 [C,,C,]2 ||[K:C] [C,F,]4 [F,,C,]2 z2 | %54
 [F,A,C]2 [F,A,C]2 [^F,A,C]2 [F,A,C]2 | [G,CE]2 [G,CE]2 [CE_G]2 [CEG]2 | D,2 [^F,C]2 [G,B,]4 | %57
 C2 G,2 C,4 | F,,2 [F,A,]2 A,,2 [F,A,]2 | F,,2 [F,A,]2 A,,2 [F,A,]2 | C,2 [G,C]2 G,,2 [G,C]2 | %61
 C,2 [G,C]2 G,,2 [G,C]2 | G,,2 [F,G,]2 B,,2 [F,G,]2 | G,,2 [F,G,]2 D,2 [F,G,]2 | %64
 [^D,^F,C]2 [D,F,C]4 [D,F,C]2 | [E,G,C]4 z4 | F,,2 [F,A,]2 A,,2 [F,A,]2 | %67
 F,,2 [F,A,]2 A,,2 [F,A,]2 | C,2 [G,C]2 G,,2 [G,C]2 | C,2 [G,C]2 G,,2 [G,C]2 | %70
 [F,,F,]2 [D,,D,]2 [E,,E,]2 [F,,F,]2 | [G,,G,]2 [CE]2 [^F,^D]2 [CE]2 | %72
 [A,,A,]2 [D,,D,]2 [G,,G,]2 [B,,B,]2 | C2 G,2 [C,,C,]4 |] %74
V:3
 x8 | x8 | x8 | x8 |: x8 | x8 | x8 | x8 | x8 | x8 | x8 | x8 | x8 | x8 | x8 | x8 | x8 | x8 | x8 | %19
 x8 | x8 | x8 | x8 | x8 | x8 | x8 | x8 | x8 | x8 | x8 | x8 | x8 | x8 | x8 |1 x8 | x8 :|2 x8 | x8 || %38
[K:F] f^g x6 | z3 B ABcd | de x6 | z2 G^F GA B2 | d2 d2- d2 d2 | x8 | x8 | x8 | f^g f2- f2 z2 | %47
 z2 BA Bc d2 | de x6 | z2 G^F GA B2 | d2 d2- d2 d2 | x8 | x8 ||[K:C] x8 | x8 | x8 | x8 | x8 | x8 | %59
 x8 | x8 | x8 | x8 | x8 | x8 | x8 | x8 | x8 | x8 | x8 | x8 | x8 | x8 | x8 |] %74
V:4
 x8 |[K:bass] x8 | x8 | x8 |: x8 | x8 | x8 | x8 | x8 | x8 | x8 | x8 | x8 | x8 | x8 | x8 | x8 | x8 | %18
 x8 | x8 | x8 | x8 | x8 | x8 | x8 | x8 | x8 | x8 | x8 | x8 | x8 | x8 | x8 | x8 |1 x8 | x8 :|2 x8 | %37
 x8 ||[K:F] x8 | x8 | x8 | x8 | x8 | x8 | x8 | z4 G,2 C,2 | x8 | x8 | x8 | x8 | x8 | x8 | x8 || %53
[K:C] x8 | x8 | x8 | x8 | x8 | x8 | x8 | x8 | x8 | x8 | x8 | x8 | x8 | x8 | x8 | x8 | x8 | x8 | %71
 x8 | x8 | x8 |] %74

